X: 12624
T: Farewell To Whisky
R: polka
M: 2/4
K: Gmajor
DF BA/G/|AE EG|DG BA/G/|dB Bd|
eg dB|c/B/A/G/ AB|D>G B/A/G/A|BG G:|
dB gB|c/B/A/G/ AB/c/|dB gB|ef g>d|
eg dB|c/B/A/G/ AB|D>G B/A/G/A|1 BG G:|2 BG G2||

